X:16
T:Arthur's Seat
M:C|
L:1/8
K:G
(G/A/B/c/ d)g edBG       |cABG E/E/E A2      |(G/A/B/c/ d)g edBG|cABG E/E/E G2:|
gag=f         ecce       |abag ^fddf          | gag=f        ecde|cABG AF    G2:|
(B/c/d) (BG) (c/d/e) (cA)|(B/c/d) (BG) (F/G/A) A2 |\
(B/c/d) (BG) (c/d/e) (cA)|(B/c/d) (BG) (AF)    G2:|
gag=f         ec e/f/g/e/|abag ^fd    f/g/a/f/|gag=f         ecdB|cABG AF    G2:|

% @@@@@@@@@@@@@@@@@@@@@@@@@@@@@@@@@@

%% 17. ===============================================================================

% +&M&umping &N&elly.+
%
% *FIRST Man sett to 2d Woman, and turn her; first Woman the same to 2d Man.  *Cross
% over, and figure in; lead down one pair, cast up, and sett a little.  *THREE hands
% round with 1st Woman, as much wt 2d Man.  *Lead out at the sides.

% @@@@@@@@@@@@@@@@@@@@@@@@@@@@@@@@@@

